src/assets/duotone/NoteFavorite.svg

<?xml version="1.0" encoding="UTF-8"?>
<svg width="24" height="24" viewBox="0 0 24 24" xmlns="http://www.w3.org/2000/svg">
 <path d="m7 5.75c-0.41 0-0.75-0.34-0.75-0.75v-3c0-0.41 0.34-0.75 0.75-0.75s0.75 0.34 0.75 0.75v3c0 0.41-0.34 0.75-0.75 0.75z"/>
 <path d="m15 5.75c-0.41 0-0.75-0.34-0.75-0.75v-3c0-0.41 0.34-0.75 0.75-0.75s0.75 0.34 0.75 0.75v3c0 0.41-0.34 0.75-0.75 0.75z"/>
 <path d="m20 8.5v8.5c0 3-1.5 5-5 5h-8c-3.5 0-5-2-5-5v-8.5c0-3 1.5-5 5-5h8c3.5 0 5 2 5 5z" opacity=".4"/>
 <path d="m13 11.75h-6c-0.41 0-0.75-0.34-0.75-0.75s0.34-0.75 0.75-0.75h6c0.41 0 0.75 0.34 0.75 0.75s-0.34 0.75-0.75 0.75z"/>
 <path d="m10 16.75h-3c-0.41 0-0.75-0.34-0.75-0.75s0.34-0.75 0.75-0.75h3c0.41 0 0.75 0.34 0.75 0.75s-0.34 0.75-0.75 0.75z"/>
 <path d="m21 13.63c-0.89-0.71-2.02-1.13-3.25-1.13s-2.38 0.43-3.28 1.16c-1.21 0.95-1.97 2.44-1.97 4.09 0 0.98 0.28 1.92 0.76 2.7 0.37 0.61 0.85 1.14 1.42 1.55 0.86 0.63 1.92 1 3.07 1 1.33 0 2.53-0.49 3.45-1.31 0.41-0.34 0.76-0.76 1.04-1.24 0.48-0.78 0.76-1.72 0.76-2.7 0-1.67-0.78-3.16-2-4.12zm-3.25 6.62c0-1.38-1.12-2.5-2.5-2.5 1.38 0 2.5-1.12 2.5-2.5 0 1.38 1.12 2.5 2.5 2.5-1.38 0-2.5 1.12-2.5 2.5z"/>
</svg>

<svg width="24" height="24" viewBox="0 0 24 24"  xmlns="http://www.w3.org/2000/svg">
<path d="M7 5.75C6.59 5.75 6.25 5.41 6.25 5V2C6.25 1.59 6.59 1.25 7 1.25C7.41 1.25 7.75 1.59 7.75 2V5C7.75 5.41 7.41 5.75 7 5.75Z" />
<path d="M15 5.75C14.59 5.75 14.25 5.41 14.25 5V2C14.25 1.59 14.59 1.25 15 1.25C15.41 1.25 15.75 1.59 15.75 2V5C15.75 5.41 15.41 5.75 15 5.75Z" />
<path opacity="0.4" d="M20 8.5V17C20 20 18.5 22 15 22H7C3.5 22 2 20 2 17V8.5C2 5.5 3.5 3.5 7 3.5H15C18.5 3.5 20 5.5 20 8.5Z" />
<path d="M13 11.75H7C6.59 11.75 6.25 11.41 6.25 11C6.25 10.59 6.59 10.25 7 10.25H13C13.41 10.25 13.75 10.59 13.75 11C13.75 11.41 13.41 11.75 13 11.75Z" />
<path d="M10 16.75H7C6.59 16.75 6.25 16.41 6.25 16C6.25 15.59 6.59 15.25 7 15.25H10C10.41 15.25 10.75 15.59 10.75 16C10.75 16.41 10.41 16.75 10 16.75Z" />
<path d="M21 13.63C20.11 12.92 18.98 12.5 17.75 12.5C16.52 12.5 15.37 12.93 14.47 13.66C13.26 14.61 12.5 16.1 12.5 17.75C12.5 18.73 12.78 19.67 13.26 20.45C13.63 21.06 14.11 21.59 14.68 22C15.54 22.63 16.6 23 17.75 23C19.08 23 20.28 22.51 21.2 21.69C21.61 21.35 21.96 20.93 22.24 20.45C22.72 19.67 23 18.73 23 17.75C23 16.08 22.22 14.59 21 13.63ZM17.75 20.25C17.75 18.87 16.63 17.75 15.25 17.75C16.63 17.75 17.75 16.63 17.75 15.25C17.75 16.63 18.87 17.75 20.25 17.75C18.87 17.75 17.75 18.87 17.75 20.25Z" />
</svg>
